X: 806
T: Gelin Gibi Süzülürsün
C: Necdet Tokatlıoğlu
O: Turkey
F: http://compmusic.upf.edu/node/140
N: mahur--fantezi--semai--gelin_gibi--necdet_tokatlioglu
N: makam= mahur
N: form= fantezi
N: usul= semai = 3/4
M: 3/4
L: 1/16
K: C ^9/8f   
Q: 1/4=132
%%MIDI tuningsystem comma53
G4 B4 d4  | g12  | g4 a4 f4  | g12  | g4 b4 g4  | b12  | \
w:  ARANAĞME  |   |   |   |   |   | 
c'6b2 a4  | g12  | g6f2 e4  | d8 c4  | 
w:   |   |   |   | 
e4 d4 c4  | B12  | c6B2 A4  | G12  | F4 G4 A4  | G12  | \
w:   |   |   |   |   |   | 
d2d6 d4  | g12  | g4 f4 g4  | f12  | f4 g4 f4  | 
w:  Ge lin  gi  |  bi   |  sü zü lür  |  sün    |  Hep  ne şe  | 
e8 d4  | b4 b4 a4  | g12  | d2d6 d4  | g12  | \
w:  li   |  gö rü nür  |  sün    |  Ge lin  gi  |  bi   | 
g4 f4 g4  | f12  | f4 g4 f4  | e8 d4  | b4 b4 a4  | 
w:  sü zü lür  |  sün    |  Hep  ne şe  |  li   |  gö rü nür  | 
g12  | g4 f4 e4  | d8 c4  | e4 d4 c4  | B12  | \
w:  sün    |  Sen_ a dın  |  la   |  ö ğü nür  |  sün    | 
c4 B4 A4  | G12  | F4 G4 A4  | G12  | g4 f4 e4  | 
w:  Dil ler de  |  sin   |  Bo ğa zi  |  çi    |  Sen_ a dın  | 
d8 c4  | e4 d4 c4  | B12  | c4 B4 A4  | G12  | \
w:  la   |  ö ğü nür  |  sün    |  Dil ler de  |  sin   | 
F4 G4 A4  | G12  | G4 G2G2 G4  | B4 B2B2 B4  | 
w:  Bo ğa zi  |  çi    |  SAZ  |   | 
d4 d2d2 d4  | g8 z4  | g4 g2f2 e4  | d4 d2c2 B4  | \
w:   |   |   |   | 
B4 B2A2 A4  | G2A2 B2c2 d4  | 
w:   |   | 
G4 B4 c4  | d12  | e4 d4 c4  | d12  | e4 d4 c4  | \
w:  Hi sar la  |  rın   |  ya lı la  |  rın    |  O ya  gi  | 
d2e2 d4 e4  | e4 d4 c4  | B12  | G4 B4 c4  | 
w:  bi   |  kı yı la  |  rın    |  Hi sar la  | 
d12  | e4 d4 c4  | d12  | e4 d4 c4  | d2e2 d4 e4  | \
w:  rın   |  ya lı la  |  rın    |  O ya  gi  |  bi   | 
e4 d4 c4  | B12  | B4 c4 d4  | B8 z4  | 
w:  kı yı la  |  rın    |  Çen gel kö  |  yün   | 
c4 B4 A4  | G8 z4  | G4 F4 E4  | D12  | B4 B4 A4  | G12  | \
w:  E mir gâ  |  nın    |  Sü sü sün   |  sen   |  Bo ğa zi  |  çi    | 
B4 c4 d4  | B8 z4  | c4 B4 A4  | 
w:  Çen gel kö  |  yün   |  E mir gâ  | 
G8 z4  | G4 F4 E4  | D12  | B4 B4 A4  | G12  | \
w:  nın    |  Sü sü sün   |  sen   |  Bo ğa zi  |  çi    | 
G4 B4 d4  | g12  | g4 a4 f4  | g12  | g4 b4 g4  | 
w:  ARANAĞME  |   |   |   |   | 
b12  | c'6b2 a4  | g12  | g6f2 e4  | d8 c4  | \
w:   |   |   |   |   | 
e4 d4 c4  | B12  | c6B2 A4  | G12  | F4 G4 A4  | 
w:   |   |   |   |   | 
G12  | d2d6 d4  | g12  | g4 f4 g4  | f12  | f4 g4 f4  | \
w:   |  Ge lin  gi  |  bi   |  sü zü lür  |  sün    |  Hep  ne şe  | 
e8 d4  | b4 b4 a4  | g12  | d2d6 d4  | 
w:  li   |  gö rü nür  |  sün    |  Ge lin  gi  | 
g12  | g4 f4 g4  | f12  | f4 g4 f4  | e8 d4  | \
w:  bi   |  sü zü lür  |  sün    |  Hep  ne şe  |  li   | 
b4 b4 a4  | g12  | g4 f4 e4  | d8 c4  | e4 d4 c4  | 
w:  gö rü nür  |  sün    |  Sen_ a dın  |  la   |  ö ğü nür  | 
B12  | c4 B4 A4  | G12  | F4 G4 A4  | G12  | g4 f4 e4  | \
w:  sün    |  Dil ler de  |  sin   |  Bo ğa zi  |  çi    |  Sen_ a dın  | 
d8 c4  | e4 d4 c4  | B12  | c4 B4 A4  | 
w:  la   |  ö ğü nür  |  sün    |  Dil ler de  | 
G12  | F4 G4 A4  | G12  | G4 G2G2 G4  | B4 B2B2 B4  | \
w:  sin   |  Bo ğa zi  |  çi    |  SAZ  |   | 
d4 d2d2 d4  | g8 z4  | g4 g2f2 e4  | 
w:   |   |   | 
d4 d2c2 B4  | B4 B2A2 A4  | G2A2 B2c2 d4  | \
w:   |   |   | 
G4 B4 c4  | d12  | e4 d4 c4  | d12  | 
w:  Hi sar la  |  rın   |  ya lı la  |  rın    | 
e4 d4 c4  | d2e2 d4 e4  | e4 d4 c4  | B12  | \
w:  O ya  gi  |  bi   |  kı yı la  |  rın    | 
G4 B4 c4  | d12  | e4 d4 c4  | d12  | e4 d4 c4  | 
w:  Hi sar la  |  rın   |  ya lı la  |  rın    |  O ya  gi  | 
d2e2 d4 e4  | e4 d4 c4  | B12  | B4 c4 d4  | \
w:  bi   |  kı yı la  |  rın    |  Çen gel kö  | 
B8 z4  | c4 B4 A4  | G8 z4  | G4 F4 E4  | 
w:  yün   |  E mir gâ  |  nın    |  Sü sü sün   | 
D12  | B4 B4 A4  | G12  | B4 c4 d4  | B8 z4  | \
w:  sen   |  Bo ğa zi  |  çi    |  Çen gel kö  |  yün   | 
c4 B4 A4  | G8 z4  | G4 F4 E4  | D12  | B4 B4 A4  | 
w:  E mir gâ  |  nın    |  Sü sü sün   |  sen   |  Bo ğa zi  | 
G12  | |


